X:1
T:"Air" Suite N°3
T:J. S. Bach - suite n°3
T:BenJ
C:J. S. Bach
Z:All Rights Reserved
L:1/8
Q:1/4=80
M:4/4
K:C
V:1 treble nm="Trumpet in C"
%%MIDI program 56
%%MIDI control 7 102
%%MIDI control 10 64
V:1
 ^f8- | f8- | f2 bg ed^cd | ^c4 B2 A2 | a8- | a^fcB e^dag | g8- | geBA d^cg^f | ^f6 ^ga | %9
 d2 d/e/^f- feed | ^cB B/c/d- d2 cB | A8 :| ^c4- cd/c/ B/c/A | a6 c2 | B2 b2- bag^f | %15
 g4- g/^f/e/d/ ^cB | ^AB ^c2- cd e2- | e^f g4 f2 | ed^cB cd/e/ dc | B4 z4 | d4- d^fed | b6 a^g | %22
 ^f/e/a A2 B2- B^c/d/ |{d-} !trill(!T^c2- !trill)!cB A4 | d6 ^fe | e6 g^f | ^f6 ag | g8 | %28
 A4- A^ceg | ge ^f4 fg/a/ | d4- d^fac' | c'2 b4 d2 | ^ce g4 B2 | A2 e^f/g/ gffe | %34
 d/^c/B- Bc{d-} !trill(!Tc2- !trill)!cd | d8 |] %36

